assets/img/braze_icons/speaker-03.svg

<svg fill="none" height="24" viewBox="0 0 24 24" width="24" xmlns="http://www.w3.org/2000/svg"><g clip-rule="evenodd" fill="#801ed7" fill-rule="evenodd"><path d="m8 10c0-2.20914 1.79086-4 4-4 2.2091 0 4 1.79086 4 4 0 2.2091-1.7909 4-4 4-2.20914 0-4-1.7909-4-4zm2.5 0c0-.82843.6716-1.5 1.5-1.5s1.5.67157 1.5 1.5c0 .8284-.6716 1.5-1.5 1.5s-1.5-.6716-1.5-1.5z"/><path d="m7.7587 1h8.4826c.8049-.000011 1.4693-.000021 2.0105.0442.5621.04592 1.0788.14449 1.5642.39178.7526.38349 1.3645.99541 1.748 1.74806.2473.48534.3459 1.00204.3918 1.56414.0442.54119.0442 1.20554.0442 2.0105v6.48262c0 .805 0 1.4693-.0442 2.0105-.0459.5621-.1445 1.0788-.3918 1.5642-.3835.7526-.9954 1.3645-1.748 1.748-.2621.1336-.5334.2237-.816.2857v1.5822c0 .2524.0001.4982-.0169.7063-.0187.2286-.0628.4984-.2011.7698-.1917.3763-.4977.6823-.874.874-.2714.1383-.5412.1824-.7698.2011-.2081.017-.4539.0169-.7063.0169h-8.86379c-.25237 0-.49818.0001-.70633-.0169-.2286-.0187-.49833-.0628-.76976-.2011-.37632-.1917-.68228-.4977-.87403-.874-.13829-.2714-.18236-.5412-.20104-.7698-.01701-.2081-.01698-.4539-.01695-.7063l.00001-1.5822c-.28261-.062-.55387-.1521-.81597-.2857-.75265-.3835-1.36457-.9954-1.74806-1.748-.24729-.4854-.34586-1.0021-.39178-1.5642-.04422-.5412-.04421-1.2055-.0442-2.0105v-6.48263c-.00001-.80495-.00002-1.46931.0442-2.01049.04592-.5621.14449-1.0788.39178-1.56414.38349-.75265.99541-1.36457 1.74806-1.74806.48534-.24729 1.00204-.34586 1.56414-.39178.54118-.044221 1.20558-.044211 2.01052-.0442zm-.75869 17.9984v1.4016c0 .2965.00077.4588.0103.5754l.00114.0132.01319.0011c.11658.0095.27884.0103.57537.0103h8.79999c.2965 0 .4588-.0008.5754-.0103l.0132-.0011.0011-.0132c.0095-.1166.0103-.2789.0103-.5754v-1.4016c-.2377.0016-.4904.0016-.7587.0016h-8.48262c-.2683 0-.52097 0-.75867-.0016zm4.99999-14.9984c-3.31371 0-6 2.68629-6 6 0 3.3137 2.68629 6 6 6 3.3137 0 6-2.6863 6-6 0-3.31371-2.6863-6-6-6z"/></g></svg>

<svg width="24" height="24" viewBox="0 0 24 24" fill="none" xmlns="http://www.w3.org/2000/svg">
<path fill-rule="evenodd" clip-rule="evenodd" d="M8 10C8 7.79086 9.79086 6 12 6C14.2091 6 16 7.79086 16 10C16 12.2091 14.2091 14 12 14C9.79086 14 8 12.2091 8 10ZM10.5 10C10.5 9.17157 11.1716 8.5 12 8.5C12.8284 8.5 13.5 9.17157 13.5 10C13.5 10.8284 12.8284 11.5 12 11.5C11.1716 11.5 10.5 10.8284 10.5 10Z" fill="#801ED7"/>
<path fill-rule="evenodd" clip-rule="evenodd" d="M7.7587 1H16.2413C17.0462 0.999989 17.7106 0.999979 18.2518 1.0442C18.8139 1.09012 19.3306 1.18869 19.816 1.43598C20.5686 1.81947 21.1805 2.43139 21.564 3.18404C21.8113 3.66938 21.9099 4.18608 21.9558 4.74818C22 5.28937 22 5.95372 22 6.75868V13.2413C22 14.0463 22 14.7106 21.9558 15.2518C21.9099 15.8139 21.8113 16.3306 21.564 16.816C21.1805 17.5686 20.5686 18.1805 19.816 18.564C19.5539 18.6976 19.2826 18.7877 19 18.8497L19 20.4319C19 20.6843 19.0001 20.9301 18.9831 21.1382C18.9644 21.3668 18.9203 21.6366 18.782 21.908C18.5903 22.2843 18.2843 22.5903 17.908 22.782C17.6366 22.9203 17.3668 22.9644 17.1382 22.9831C16.9301 23.0001 16.6843 23 16.4319 23H7.56811C7.31574 23 7.06993 23.0001 6.86178 22.9831C6.63318 22.9644 6.36345 22.9203 6.09202 22.782C5.7157 22.5903 5.40974 22.2843 5.21799 21.908C5.0797 21.6366 5.03563 21.3668 5.01695 21.1382C4.99994 20.9301 4.99997 20.6843 5 20.4319L5.00001 18.8497C4.7174 18.7877 4.44614 18.6976 4.18404 18.564C3.43139 18.1805 2.81947 17.5686 2.43598 16.816C2.18869 16.3306 2.09012 15.8139 2.0442 15.2518C1.99998 14.7106 1.99999 14.0463 2 13.2413V6.75867C1.99999 5.95372 1.99998 5.28936 2.0442 4.74818C2.09012 4.18608 2.18869 3.66938 2.43598 3.18404C2.81947 2.43139 3.43139 1.81947 4.18404 1.43598C4.66938 1.18869 5.18608 1.09012 5.74818 1.0442C6.28936 0.999979 6.95376 0.999989 7.7587 1ZM7.00001 18.9984V20.4C7.00001 20.6965 7.00078 20.8588 7.01031 20.9754L7.01145 20.9886L7.02464 20.9897C7.14122 20.9992 7.30348 21 7.60001 21H16.4C16.6965 21 16.8588 20.9992 16.9754 20.9897L16.9886 20.9886L16.9897 20.9754C16.9992 20.8588 17 20.6965 17 20.4V18.9984C16.7623 19 16.5096 19 16.2413 19H7.75868C7.49038 19 7.23771 19 7.00001 18.9984ZM12 4C8.68629 4 6 6.68629 6 10C6 13.3137 8.68629 16 12 16C15.3137 16 18 13.3137 18 10C18 6.68629 15.3137 4 12 4Z" fill="#801ED7"/>
</svg>
